X:1
T:Title
%%score ( 1 2 ) ( 3 4 )
L:1/8
Q:1/4=93
M:6/8
K:Ab
V:1 treble nm="Grand Piano, Soprano"
V:2 treble 
V:3 bass nm="Choir Pad, Just the Whispered Name"
V:4 bass 
V:1
 C[CE][DF]- [DF][CE][Ec]- | [Ec][Fd][Ec]- [Ec]2 [DB] | [DF][DG][DB]- [DB][DG][DF]- | %3
w: By~Charles~Austin~Miles * * * * *|||
 [DF][DG][CE]- [CE]2- [CE]/ z/ | C[CE][DF]- [DF][CE][Ec]- | [Ec][Fd][Ec]- [Ec]2 [DB] | z6 | z6 | %8
w: |||||
 z6 | z2 A- A3- | A2 z z3 | z6 | z6 | z6 | z6 | z6 |[M:4/4] z2 F6 | z2 E6 | %18
w: ||||||||||
 [CA][DB] [Ec]2 [CE]2 [CA]2 | [Ec]2 [EB]6 | [Ec][DB] A2- [CA-][CA-] [CA]2 | %21
w: |||
 [CA][CG] F2- [DF]2 [FA]2 | [FA][=EB] [_Ec]2 [CA]2 [Ec]2 | [DB]2 [CA]6- | [CA]2 z2 z4 |] %25
w: ||||
V:2
 x6 | x6 | x6 | x6 | x6 | x6 | [DE][DF][DG]- [DG][DE][Ec]- | [Ec][DB][CA]- [CA]3- | %8
 [CA]2 [Ec]- [Ec][EA][=EB]- | [EB][=EG]F- F2 _G- | G2 [FA]- [FA][FA][E=G]- | %11
 [EG][DF][DF]- [DF][CE][CE]- | [CE]2 [Ec]- [Ec][EA][=EB]- | [EB][=EG][FA]- [FA][_GA][FA]- | %14
 [FA][FB][Ec]- [Ec][EA][EB]- | [EB]2 [EA]- [EA]3/2 z/ z |[M:4/4] AG z2 DD D2 | [FA][DF] C2 CC C2 | %18
 x8 | x8 | z2 C2 z4 | z2 D2 z4 | x8 | x8 | x8 |] %25
V:3
 [A,,A,][A,,A,][A,,A,]- [A,,A,][A,,A,][A,,A,]- | [A,,A,][A,,A,][E,A,]- [E,A,]2 [E,G,] | %2
 [E,G,][E,G,][E,G,]- [E,G,][E,B,][E,B,]- | [E,B,][E,B,][A,,A,]- [A,,A,]2- [A,,A,]/ z/ | %4
 [A,,A,][A,,A,][A,,A,] [A,,A,]2 [A,,A,] | [A,,A,]2 [E,A,]- [E,A,]2 [E,G,] | %6
 [E,G,][E,G,][E,B,]- [E,B,][E,G,][E,A,]- | [E,A,][E,G,][A,,A,]- [A,,A,]3- | %8
 [A,,A,]2 [A,C]- [A,C][A,C][G,C]- | [G,C][G,C]C- C2- [E,C]- | [E,C]2 [D,D]- [D,D][D,D][D,A,]- | %11
 [D,A,]A,/-[F,A,]/A,- A,/ z/ [A,,A,][A,,A,]- | [A,,A,]2 [A,C]- [A,C][A,C][G,C]- | %13
 [G,C][G,C][F,C]- [F,C][E,C][D,D]- | [D,D][D,A,][E,A,]- [E,A,][E,C][E,D]- | %15
 [E,D]2 [A,C]- [A,C]3/2 z/ z |[M:4/4] z4 [D,A,][D,A,] [D,A,]2 | z4 [A,,A,][A,,A,] [A,,A,]2 | %18
 [A,,A,][A,,A,] [A,,A,]2 [A,,A,]2 [A,,A,]2 | [A,,A,]2 [E,G,]6 | z4 [A,,A,][A,,A,] [A,,A,]2 | %21
 [A,,A,][A,,A,] [D,A,]2 [D,A,]2 [D,D]2 | [D,D][D,D] [E,A,]2 [E,A,]2 [E,A,]2 | [E,G,]2 [A,,A,]6- | %24
 [A,,A,]2 z2 z4 |] %25
V:4
 x6 | x6 | x6 | x6 | x6 | x6 | x6 | x6 | x6 | z2 F,- F,2 z | x6 | z .D,2 z3 | x6 | x6 | x6 | x6 | %16
[M:4/4] x8 | x8 | x8 | x8 | x8 | x8 | x8 | x8 | x8 |] %25

